assets/spraw/zhp_harc_sim_2022/pasje_i_specjalnosci/obronca.svg

<?xml version="1.0" encoding="UTF-8" standalone="no"?>
<svg
   xmlns:dc="http://purl.org/dc/elements/1.1/"
   xmlns:cc="http://creativecommons.org/ns#"
   xmlns:rdf="http://www.w3.org/1999/02/22-rdf-syntax-ns#"
   xmlns:svg="http://www.w3.org/2000/svg"
   xmlns="http://www.w3.org/2000/svg"
   xmlns:sodipodi="http://sodipodi.sourceforge.net/DTD/sodipodi-0.dtd"
   xmlns:inkscape="http://www.inkscape.org/namespaces/inkscape"
   inkscape:export-ydpi="97"
   inkscape:export-xdpi="97"
   inkscape:export-filename="C:\Users\Joanna\Desktop\Pryzmat\Materiały\Emblematy\Sprawnosci brakujące\png\sprawnosci-h-Obronca.png"
   version="1.1"
   x="0px"
   y="0px"
   viewBox="0 0 90.709 90.709"
   style="enable-background:new 0 0 90.709 90.709;"
   xml:space="preserve"
   id="svg26"
   sodipodi:docname="sprawnosci-h-Obronca.svg"
   inkscape:version="1.0 (4035a4fb49, 2020-05-01)"><metadata
   id="metadata32"><rdf:RDF><cc:Work
       rdf:about=""><dc:format>image/svg+xml</dc:format><dc:type
         rdf:resource="http://purl.org/dc/dcmitype/StillImage" /><dc:title /></cc:Work></rdf:RDF></metadata><defs
   id="defs30"><clipPath
     clipPathUnits="userSpaceOnUse"
     id="clipPath50"><circle
       style="fill:#f15a38;fill-rule:evenodd;stroke:none;stroke-width:19.3805;stroke-linecap:round;stop-color:#000000"
       id="circle52"
       cx="197.70859"
       cy="45.909863"
       r="71.826721" /></clipPath><clipPath
     clipPathUnits="userSpaceOnUse"
     id="clipPath1011"><circle
       r="101.44066"
       cy="59.05611"
       cx="385.84714"
       id="circle1013"
       style="opacity:0.5;fill:#f15a38;fill-rule:evenodd;stroke:none;stroke-width:47.6107;stroke-linecap:round;stop-color:#000000" /></clipPath><clipPath
     clipPathUnits="userSpaceOnUse"
     id="clipPath1081"><circle
       r="217.79622"
       cy="126.60494"
       cx="-592.00348"
       id="circle1083"
       style="opacity:0.5;fill:#f15a38;fill-rule:evenodd;stroke:none;stroke-width:102.222;stroke-linecap:round;stop-color:#000000" /></clipPath><clipPath
     clipPathUnits="userSpaceOnUse"
     id="clipPath1277"><circle
       r="166.45103"
       cy="-601.58362"
       cx="326.76178"
       id="circle1279"
       style="opacity:0.5;fill:#f15a38;fill-rule:evenodd;stroke:none;stroke-width:78.1231;stroke-linecap:round;stop-color:#000000" /></clipPath><clipPath
     clipPathUnits="userSpaceOnUse"
     id="clipPath1281"><circle
       r="200.651"
       cy="-232.99599"
       cx="441.13412"
       id="circle1283"
       style="opacity:0.5;fill:#f15a38;fill-rule:evenodd;stroke:none;stroke-width:94.1746;stroke-linecap:round;stop-color:#000000" /></clipPath><clipPath
     clipPathUnits="userSpaceOnUse"
     id="clipPath1285"><circle
       r="184.151"
       cy="-359.95541"
       cx="-556.18292"
       id="circle1287"
       style="opacity:0.5;fill:#f15a38;fill-rule:evenodd;stroke:none;stroke-width:86.4305;stroke-linecap:round;stop-color:#000000" /></clipPath><clipPath
     clipPathUnits="userSpaceOnUse"
     id="clipPath1289"><circle
       r="173.70735"
       cy="-999.40125"
       cx="-589.78162"
       id="circle1291"
       style="opacity:0.5;fill:#f15a38;fill-rule:evenodd;stroke:none;stroke-width:81.5288;stroke-linecap:round;stop-color:#000000" /></clipPath></defs><sodipodi:namedview
   inkscape:document-rotation="0"
   pagecolor="#ffffff"
   bordercolor="#666666"
   borderopacity="1"
   objecttolerance="10"
   gridtolerance="10"
   guidetolerance="10"
   inkscape:pageopacity="0"
   inkscape:pageshadow="2"
   inkscape:window-width="640"
   inkscape:window-height="480"
   id="namedview28"
   showgrid="false"
   inkscape:zoom="16"
   inkscape:cx="30.602515"
   inkscape:cy="51.28783"
   inkscape:current-layer="svg26"
   inkscape:snap-global="false" />
<g
   id="ratownik-1">
	<g
   id="g10">
		<g
   id="g8">
			
				<ellipse
   transform="matrix(0.7071 -0.7071 0.7071 0.7071 -18.7867 45.3541)"
   style="fill:#194093;"
   cx="45.354"
   cy="45.355"
   rx="43.52"
   ry="43.52"
   id="ellipse2" />
			<g
   id="g6">
				<path
   style="fill:#252E78;"
   d="M45.354,2.835c23.483,0,42.52,19.037,42.52,42.52c0,23.483-19.037,42.52-42.52,42.52      c-23.483,0-42.52-19.037-42.52-42.52C2.835,21.871,21.871,2.835,45.354,2.835 M45.354,0.835c-24.548,0-44.52,19.972-44.52,44.52      s19.972,44.52,44.52,44.52s44.52-19.972,44.52-44.52S69.902,0.835,45.354,0.835L45.354,0.835z"
   id="path4" />
			</g>
		</g>
	</g>
</g>

<path
   sodipodi:nodetypes="csccscccccccscccccccccsssccccccscccccccsccc"
   id="path1451"
   style="opacity:1;fill:#efac1f;fill-rule:evenodd;stroke:none;stroke-width:1px;stroke-linecap:butt;stroke-linejoin:miter;stroke-opacity:1"
   d="m 23.154297,23.730469 c -0.587353,28.19295 -0.401084,32.96675 8.621094,44.59375 6.760211,8.711974 13.676645,9.939716 13.697265,9.943359 0,0 0.0039,6e-6 0.0039,0 0.02074,-0.0037 6.935159,-1.23146 13.695313,-9.943359 9.022178,-11.627 9.208447,-16.4008 8.621094,-44.59375 -16.475648,1.693429 -30.035,1.668979 -44.638672,0 z m 23.835937,5.009765 c 1.215942,-6.48e-4 2.20182,0.98523 2.201172,2.201172 v 15.310547 c 4.08e-4,0.0047 0.0016,0.009 0.002,0.01367 2.16e-4,0.331066 0.268544,0.599394 0.59961,0.599609 0.331066,-2.16e-4 0.599393,-0.268543 0.599609,-0.599609 0,-0.0119 0.0019,-0.01947 0.002,-0.03125 V 33.363281 c 4.31e-4,-1.214417 0.984802,-2.198788 2.199219,-2.199219 1.215179,-6.47e-4 2.200741,0.98404 2.201172,2.199219 v 22.910157 l 3.736328,-5.632813 c 0.671708,-1.013343 2.038006,-1.289751 3.050781,-0.617187 1.012668,0.672338 1.288178,2.038514 0.615235,3.050781 l -7.615235,11.472656 c -1.075459,1.620178 -2.53888,2.948404 -4.425781,3.644531 -1.886901,0.696128 -4.042056,0.845775 -6.867188,0.773438 -4.594428,-0.117641 -7.36916,-3.203435 -8.501953,-5.898438 -1.132793,-2.695003 -1.101562,-5.261718 -1.101562,-5.261718 L 33.509766,37.318359 c -0.0104,-1.214439 0.965254,-2.207581 2.179687,-2.21875 1.215196,-0.0104 2.208653,0.966443 2.21875,2.181641 L 38,47.982422 c 0.0418,0.290391 0.282067,0.517381 0.583984,0.517578 0.331828,8.64e-4 0.601348,-0.26778 0.601563,-0.599609 0,-0.0078 0.0019,-0.01565 0.002,-0.02344 V 32.435547 c 4.31e-4,-1.214417 0.984802,-2.198788 2.199219,-2.199219 1.214417,4.31e-4 2.198788,0.984802 2.199219,2.199219 v 13.486328 c 4.18e-4,0.0051 0.0015,0.0086 0.002,0.01367 2.15e-4,0.331829 0.269734,0.600473 0.601562,0.599609 0.331066,-2.16e-4 0.599393,-0.268543 0.599609,-0.599609 0,-0.01491 0.0019,-0.02621 0.002,-0.04102 V 30.941406 c -6.47e-4,-1.215179 0.984039,-2.20074 2.199218,-2.201172 z" /><path
   id="path1457"
   style="opacity:1;fill:#ffffff;fill-rule:evenodd;stroke:none;stroke-width:1.22586px;stroke-linecap:butt;stroke-linejoin:miter;stroke-opacity:1"
   d="M 17.470703 18.337891 C 17.304616 25.948407 17.183482 32.082618 17.210938 37.265625 C 17.093704 54.915057 18.572993 60.620727 27.332031 71.396484 C 30.136918 74.847181 33.073061 77.341218 35.755859 79.154297 C 41.186622 82.994407 45.454799 83.657144 45.472656 83.660156 C 45.472656 83.660156 45.476563 83.660163 45.476562 83.660156 C 45.476936 83.660093 45.523012 83.649269 45.527344 83.648438 C 45.531379 83.649211 45.575812 83.660095 45.576172 83.660156 C 45.576172 83.660163 45.580078 83.660156 45.580078 83.660156 C 45.59793 83.657145 49.862896 82.994839 55.291016 79.158203 C 57.975514 77.344794 60.913613 74.849892 63.720703 71.396484 C 72.479741 60.620727 73.95903 54.915057 73.841797 37.265625 C 73.869253 32.082618 73.748119 25.948407 73.582031 18.337891 C 73.546616 18.341754 73.511968 18.343807 73.476562 18.347656 C 73.476484 18.344044 73.476641 18.341503 73.476562 18.337891 C 63.490079 19.317769 54.36617 19.806605 45.527344 19.835938 C 36.688517 19.806605 27.562656 19.317769 17.576172 18.337891 C 17.576093 18.341503 17.576251 18.344044 17.576172 18.347656 C 17.540767 18.343807 17.506118 18.341754 17.470703 18.337891 z M 23.259766 23.740234 C 30.774128 24.595206 38.02114 25.008976 45.527344 24.982422 C 53.032856 25.008897 60.279253 24.595132 67.792969 23.740234 C 68.380048 51.923581 68.192898 56.698707 59.171875 68.324219 C 52.547587 76.861026 45.816408 78.201542 45.527344 78.255859 C 45.247804 78.203445 38.510118 76.867431 31.880859 68.324219 C 22.859836 56.698707 22.672686 51.923581 23.259766 23.740234 z " /></svg>

<svg xmlns="http://www.w3.org/2000/svg" viewBox="0 0 90.709 90.709"><circle transform="matrix(.7071 -.7071 .7071 .7071 -18.7867 45.3541)" cx="45.354" cy="45.355" r="43.52" fill="#194093"/><path d="M45.354 2.835c23.483 0 42.52 19.037 42.52 42.52s-19.037 42.52-42.52 42.52-42.52-19.037-42.52-42.52 19.037-42.52 42.52-42.52m0-2C20.806.835.834 20.807.834 45.355s19.972 44.52 44.52 44.52 44.52-19.972 44.52-44.52S69.902.835 45.354.835h0z" fill="#252e78"/><g fill-rule="evenodd"><path d="M23.154 23.73c-.587 28.193-.401 32.967 8.621 44.594 6.76 8.712 13.677 9.94 13.697 9.943.025-.004 6.939-1.231 13.699-9.943 9.022-11.627 9.208-16.401 8.621-44.594-16.476 1.693-30.035 1.669-44.639 0zm23.836 5.01a2.2 2.2 0 0 1 2.201 2.201v15.311c.002.345.271.613.602.613a.6.6 0 0 0 .6-.6c0-.012.002-.019.002-.031V33.363a2.2 2.2 0 1 1 4.4 0v22.91l3.736-5.633a2.2 2.2 0 0 1 3.666 2.434l-7.615 11.473c-1.075 1.62-2.539 2.948-4.426 3.645s-4.042.846-6.867.773c-4.594-.118-7.369-3.203-8.502-5.898s-1.102-5.262-1.102-5.262l-.176-20.486a2.2 2.2 0 0 1 2.18-2.219 2.2 2.2 0 0 1 2.219 2.182L38 47.982c.042.29.282.517.584.518a.6.6 0 0 0 .602-.6c0-.008.002-.016.002-.023V32.436a2.2 2.2 0 0 1 2.199-2.199 2.2 2.2 0 0 1 2.199 2.199v13.486c.002.345.272.614.604.613a.6.6 0 0 0 .6-.6c0-.015.002-.026.002-.041V30.941a2.2 2.2 0 0 1 2.199-2.201z" fill="#efac1f"/><path d="M17.471 18.338l-.26 18.928c-.117 17.649 1.362 23.355 10.121 34.131 2.805 3.451 5.741 5.945 8.424 7.758 5.431 3.84 9.699 4.503 9.717 4.506.004 0 .05-.011.055-.012s.048.012.049.012c.022-.003 4.287-.665 9.715-4.502 2.684-1.813 5.623-4.308 8.43-7.762 8.759-10.776 10.238-16.481 10.121-34.131.027-5.183-.094-11.317-.26-18.928-.035.004-.07.006-.105.01-9.986.97-19.11 1.459-27.949 1.488-8.839-.029-17.965-.518-27.951-1.498a.38.38 0 0 1-.105 0zm5.789 5.402c7.514.855 14.761 1.269 22.268 1.242 7.506.026 14.752-.387 22.266-1.242.587 28.183.4 32.958-8.621 44.584-6.624 8.537-13.355 9.877-13.645 9.932-.28-.052-7.017-1.388-13.646-9.932-9.021-11.626-9.208-16.401-8.621-44.584z" fill="#fff"/></g></svg>
